X: 1581
T: Pestten Eylerdi Niyâzı
C: Ahmet Avni Konuk
O: Turkey
F: http://compmusic.upf.edu/node/140
N: huseyni--kupe--agirduyek--pesden--ahmet_avni_konuk
N: makam= huseyni
N: form= kupe
N: usul= agirduyek = 8/4
M: 8/4
L: 1/16
K: C _2/4B ^3/4f  
Q: 1/4=57
%%MIDI tuningsystem comma53
z4 A2A2 A4 e4 e3d c2d2 e4 g2^2/4fe  | \
w:  Pes *  *  den  ey *  *  *  ler  | 
e4 c2d2 c4 d2e2 d2c2 {d}c2B2 c3B A4  | 
w:  *  di  *  *  ni *  yâ *  *  *  *  zı   | 
z4 A2A2 A4 g4 g2f2 e2f2 agfe edd^3/4c  | \
w:  sayd  *  *  i çün  *  *  *  ol   | 
d4 e2f2 g3f a2g^2/4f e2e2 e2{=f}ed edcd e4  | 
w:  *  dil *  *  *  be *  *  ri    | 
z4 e2e2 e4 f4 g3_b a2g2 g=ffe eddc  | \
w:  Dil  *  *  bu lup  *  *  *  ruh  | 
d4 c2d2 c4 d4 =fefg e2d2 d2c4BA  | 
w:  *  sat  *  *  Hü sey *  *  *  *  *  nî  | 
B4 A2G2 .A4 B4 c3e d2c2 B3A G2d2  | \
w:  *  ye  *  *  çı kar *  *  *  dı   | 
c4 B2c2 B4 A4 A2c4BA A6z2  | 
w:  *  iş *  *  le ri    | 
|


